X: 38
T: Fumu zhuhuen bu yuanyi
%%abc-version 2.0
%%abcx-abcm2ps-target-version 5.9.1 (29 Sep 2008)
%%abc-creator hum2abc beta
%%abcx-conversion-date 2013/10/02 07:52:29
%%abc-edited-by Helmut Schaffrath
%%humdrum-veritas 2071728444
%%humdrum-veritas-data 553288213
%%continueall 1
%%barnumbers 0
L: 1/8
M: 2/4
K: F
d/ d/ da2- [I:setbarnb 1]| 
a g/ a/ g f/ d/ | 
c A d g/ c/ | 
A4 | 
d/ d/ da2- | 
a g/ a/ g f/ d/ | 
c A d a | 
d4 |]  



